X: 184
T: Aşîrân-Zemzeme Peşrev
C: ?
O: Turkey
F: http://compmusic.upf.edu/node/140
N: asiranzemzeme--pesrev--sofyan----
N: makam= asiranzemzeme
N: form= pesrev
N: usul= sofyan = 4/4
M: 4/4
L: 1/16
K: C ^f   
Q: 1/4=90
%%MIDI tuningsystem comma53
e4 c4 d2c2 d2e2  | e6f2 g4 a4  | agf2 g2a2 g2a2 f2g2  | \
w:  1. HANE  |   |   | 
e8 d2c2 e4  | 
w:   | 
z4 f2g2 a4 b4  | a2g2 f2a2 g8  | g3f g2a2 g2a2 f4  | \
w:   |   |   | 
f3e f2g2 f2g2 e4  | 
w:   | 
z4 g2=f2 e4 d4  | e2d2 c2B2 c8  | B2c2 B2c2 d6e2  | \
w:   |   |   | 
g2=f2 e2d2 c2B2 c4  | 
w:   | 
e4 d2=f2 e4 d4  | e2d2 c2B2 A8  | c3B c2d2 c2B2 A2^G2  | \
w:   |   |   | 
A6e2 d4 e4  | 
w:   | 
d2e2 c2d2 e4 z4  | e2f2 g2f2 a6g2  | \
w:  TESLİM  |   | 
ag=fe d2e2 c2B2 c4  | 
w:   | 
c3B c2d2 c2B2 A4  | A2B2 c2d2 e6d2  | \
w:   |   | 
d2c2 c2B2 B2A4B2  | A2B2 A2G2 G2F2 G2AB  | 
w:   |   | 
A2G2 F2E2 E6D2  | B3A G2A2 B4 z4  | B2c2 d2B2 A4 G4  | \
w:   |   |   | 
A2B2 B2A2 G6F2  | 
w:   | 
F3E F2G2 F3E D4  | E4 =F8 E2F2  | E2=F2 G2A2 G6E2  | \
w:   |   |   | 
=F3E D2E2 D2E2 G2FE  | 
w:   | 
E12 z4  | |


